!!!!SEGMENT: pl-wtm--a-22-758_lidauer-wladyslaw--graj-skrzypku.krn
!!!cenid: 19xx:22
!!!COM: Lidauer, Władysław
!!!COM-rismID: pe50054718
!!!CDT: 1890-1939
!!!CNT: Polish
!!!OTL: Graj skrzypku
!!!PDT: 1936
!!!AGN: Secular
!!!YEC: Copyright 2022 Narodowy Instytut Fryderyka Chopina (https://polishscores.org)
!!!YEM: License CC-BY-4.0 (https://creativecommons.org/licenses/by/4.0)
!!!SMS-siglum: PL-Wtm
!!!SMS-shelfmark: A.22.758
!!!SMS-variant:
!!!SMS-altvar:
!!!SMS-shelfwork: W
!!!NIFC-rismSourceID: 1001219002
!!!NIFC-rismChildID: 1001219002
!!!NIFC-islandoraID: pl-wtm:94956
!!!URL-pdf-islandora: https://repozytorium.nifc.pl/islandora/object/pl-wtm%3A94956/datastream/PDF/view
!!!URL-scan: https://polish.musicsources.pl/pl/lokalizacje/galeria/druki-muzyczne/19761/2 @EN{Scan on Polish Music Sources Website} @PL{Skany w portalu Dziedzictwo Muzyki Polskiej w otwartym dostępie}
!!!IIIF:
!!!ONB-nifc:
!!!AIN: 2 piano 1 vox
!!!key: a
**kern	**kern	**kern	**text	**text
*part3	*part2	*part1	*part1	*part1
*staff3	*staff2	*staff1	*staff1	*staff1
*I"[Piano]	*I"[Piano]	*I"[Voce]	*	*
*I'[pf]	*I'[pf]	*I'V	*	*
*ICklav	*ICklav	*ICvox	*	*
*Ipiano	*Ipiano	*Ivox	*	*
*>[A,A1,A,A2]	*>[A,A1,A,A2]	*>[A,A1,A,A2]	*>[A,A1,A,A2]	*>[A,A1,A,A2]
*>A	*>A	*>A	*>A	*>A
*clefF4	*clefG2	*clefG2	*	*
*k[]	*k[]	*k[]	*	*
*a:	*a:	*a:	*	*
*M2/4	*M2/4	*M2/4	*	*
8r	(>8e\L	4ryy	.	.
4r	8cc\ 8ee	.	.	.
.	8a\J) 8cc	8ryy	.	.
=1	=1	=1	=1	=1
8AAA/L 8AA	(2e/ [2a	2ryy	.	.
8E/ 8A 8c	.	.	.	.
8E/ 8A 8c	.	.	.	.
8EE/J 8E	.	.	.	.
=2	=2	=2	=2	=2
8AAA/L 8AA	8d/L) 8a]	2ryy	.	.
8C/ 8E 8A	(8c/ 8e	.	.	.
8C/ 8E 8A	8e/ 8a	.	.	.
8EE/J 8E	8a/J) 8cc	.	.	.
=3	=3	=3	=3	=3
8GG#X/L	[2g#X/ [2b	2ryy	.	.
8E/ 8G#X 8d	.	.	.	.
8E/ 8G# 8d	.	.	.	.
8BBB/J 8BB	.	.	.	.
=4	=4	=4	=4	=4
8EE/L 8E	8g#/L] 8b]	2ryy	.	.
8E/ 8G#X 8d	(8e/	.	.	.
8E/ 8G# 8d	8b/ 8dd	.	.	.
8BBB/J 8BB	8g#X/J) 8b	.	.	.
=5	=5	=5	=5	=5
8EE/L 8E	[2e/ [2g#X	2ryy	.	.
8E/ 8G#X 8d	.	.	.	.
8E/ 8G# 8d	.	.	.	.
8BBB/J 8BB	.	.	.	.
=6	=6	=6	=6	=6
8EE/L 8E	8e/L] 8g#]	2ryy	.	.
8E/ 8G#X 8d	(8e/	.	.	.
8E/ 8G# 8d	8g#X/	.	.	.
8EE/J 8E	8b/J)	.	.	.
!!LO:LB:g=original	!	!	!	!
=7	=7	=7	=7	=7
16AA/KL 16A	[2c/ [>2e [2a	2r	.	.
8FF/ 8F	.	.	.	.
16EE/Jk 16E	.	.	.	.
16DD/KL 16D	.	.	.	.
8CC/ 8C	.	.	.	.
16BBB/Jk 16BB	.	.	.	.
=8	=8	=8	=8	=8
8AAA/L 8AA	8c/L] 8e] 8a]	4r	.	.
8EE/ 8E	8G#X/J 8B 8e	.	.	.
8AAA/J 8AA	16c/LL 16e 16a	16r	.	.
.	16e/ 16cc	16cc\	1. Po-	2. U-
8r	16e/ 16cc	16cc\	-zna-	-cie-
.	16d/JJ 16b	16b\	-łem	-kły
!LO:TX:b:rj:t=[segno]	!	!LO:TX:a:rj:t=[segno]	!	!
=9||	=9||	=9||	=9||	=9||
8AAA/L 8AA	4c/ 4a	4a/	Cię	w dal,
8C/ 8E 8A	.	.	.	.
8E/ 8A 8c	16r	16r	.	.
.	16e/LL 16cc	16cc\	w ka-	cu-
8EE/J 8E	16e/ 16cc	16cc\	-wiar-	-do-
.	16d/JJ 16b	16b\	-ni	-wne
=10	=10	=10	=10	=10
8AAA/L 8AA	4c/ 4a	4a/	tej	dnie
8C/ 8E 8A	.	.	.	.
8E/ 8A 8c	16r	16r	.	.
.	16d/LL 16b	16b\	Na	Na-
8AAA/J 8AA	16d/ 16b	16b\	skrzy-	-de-
.	16c/JJ 16a	16a/	-pcach	-szło
=11	=11	=11	=11	=11
8EE/L	8B/L 8g#X	8g#X/	swych	już
8D/J 8E 8G#X	16r	16r	.	.
.	16c/Jk 16a	16a/	cu-	to
8GGG#X/L 8GG#X	8d/L 8b	8b\	-do-	złe
8D/J 8E 8G#	16r	16r	.	.
.	16e/Jk 16cc	16cc\	-wnie	roz-
!!LO:LB:g=original	!	!	!	!
=12	=12	=12	=12	=12
8AAA/L 8AA	8d/L 8b	8b\	gra-	-sta-
8C/ 8E 8A	8c/J 8a	8a/	-łeś!	-nie
8E/ 8A 8c	16r	16r	.	.
.	16e/LL 16cc	16cc\	Słu-	Przy-
8EE/J 8E	16e/ 16cc	16cc\	-cha-	-cho-
.	16d/JJ 16b	16b\	-jąc	-dzę
=13	=13	=13	=13	=13
8AAA/L 8AA	4c/ 4a	4a/	wciąż	więc
8C/ 8E 8A	.	.	.	.
8E/ 8A 8c	16r	16r	.	.
.	16c/LL 16a	16a/	me-	zo-
8AAA/J 8AA	16d/ 16b	16b\	-lo-	-ba-
.	16e/JJ 16cc	16cc\	-dji	-czyć
=14	=14	=14	=14	=14
8DD/L 8D	4f/ 4dd	4dd\	Twej	Cię
8D/ 8F 8A	.	.	.	.
8F/ 8A 8d	16r	16r	.	.
.	16g\LL 16b	16b\	Wie-	I
8DD/J 8D	16a\ 16cc	16cc\	-dzia-	jesz-
.	16b\JJ 16dd	16dd\	-łem,	-cze
=15	=15	=15	=15	=15
8AAA/L 8AA	8a\L 8cc	8cc\	że	raz
8E/J 8A 8c	16r	16r	.	.
.	16a\Jk	16a/	swą	us-
8DD#X/L 8D#X	16b\LL	16b\	pio-	-ły-
.	16cc\	16cc\	-snkę	-szeć
8F#X/J 8A 8d#X	16b\	16b\	do	Two-
.	16a\JJ	16a/	mnie	-je
=16	=16	=16	=16	=16
8EE/L 8E	8b/L	8b\	sła-	gra-
8E/J 8G#X 8B	8e/J	8e/	-łeś	-nie
8E/L 8G# 8B	16r	16r	.	.
.	16e/LL 16cc	16cc\	Ach!	Ach!
8EE/J 8E	16e/ 16cc	16cc\	Graj	Graj
.	16d/JJ 16b	16b\	mi	mi
!!LO:LB:g=original	!	!	!	!
=17	=17	=17	=17	=17
8AAA/L 8AA	4c/ 4a	4a/	graj	graj,
8C/ 8E 8A	.	.	.	.
8E/ 8A 8c	16r	16r	.	.
.	16e/LL 16cc	16cc\	ra-	os-
8EE/J 8E	16e/ 16cc	16cc\	-pso-	-tat-
.	16d/JJ 16b	16b\	-dję	-ni
=18	=18	=18	=18	=18
8AAA/L 8AA	4c/ 4a	4a/	snów	raz
8C/ 8E 8A	.	.	.	.
8E/ 8A 8c	16r	16r	.	.
.	16d/LL 16b	16b\	Niech	Już
8AAA/J 8AA	16d/ 16b	16b\	le-	wię-
.	16c/JJ 16a	16a/	-ci	-cej
=19	=19	=19	=19	=19
8EE/L	8B/L 8g#X	8g#X/	w dal	mnie
8D/J 8E 8G#X	16r	16r	.	.
.	16c/Jk 16a	16a/	pio-	nie
8GG#X/L	8d/L 8b	8b\	-sen-	uj-
8D/J 8E 8G#	16r	16r	.	.
.	16e/Jk 16cc	16cc\	-ka	-rzysz
=20	=20	=20	=20	=20
8AAA/L 8AA	8d/L 8b	8b\	ci-	nig-
8C/J 8E 8A	8c/J 8a	8a/	-cha	-dy
8E/L 8A 8c	16r	16r	.	.
.	16c/LL 16e 16a	16a/	Ja	Bo
8AAA/J 8AA	16c/ 16e 16a	16a/	pro-	śle-
.	16c/JJ 16e 16a	16a/	-szę	-py
=21	=21	=21	=21	=21
8DD/L 8D	4f/ 4a 4dd	4dd\	Cię,	los,
8D/ 8F 8A	.	.	.	.
8F/ 8A 8d	16r	16r	.	.
.	16g#X\LL 16b	16b\	Chcę	roz-
8EE/J 8E	16a\ 16cc	16cc\	sły-	-dzie-
.	16b\JJ 16dd	16dd\	-szeć	-la
!!LO:PB:g=original	!	!	!	!
=22	=22	=22	=22	=22
8AAA/L 8AA	4a\ 4cc	4cc\	znów	nas
8C/ 8E 8A	.	.	.	.
8E/ 8A 8c	16r	16r	.	.
.	16a\LL	16a/	Sreb-	Więc
8AAA/J 8AA	16b\	16b\	-rzys-	za-
.	16cc\JJ	16cc\	-ty	-graj
=23	=23	=23	=23	=23
8EE/L 8E	4g#X/ 4b	4b\	ton	mi
8E/ 8G#X 8B	.	.	.	.
8G#/ 8B 8d	16r	16r	.	.
.	16g#/LL	16g#X/	i	os-
8EE/J 8E	16a/	16a/	kil-	-tat-
.	16b/JJ	16b\	-ka	-ni
=24	=24	=24	=24	=24
8AAA/ 8AA	8a\L	8a/	słów...	raz...
8r	(8e\	8e/	Graj	.
4r	8cc\ 8ee	8ee\	skrzyp-	.
.	8a\J) 8cc	8cc\	-ku	.
=25!|:	=25!|:	=25!|:	=25!|:	=25!|:
!	!	!LO:TX:a:t=REFRAIN	!	!
8AAA/L 8AA	[2e/ [2a	[2a/	graj	.
8E/ 8A 8c	.	.	.	.
8E/ 8A 8c	.	.	.	.
8EE/J 8E	.	.	.	.
=26	=26	=26	=26	=26
8AAA/L 8AA	8e/L] 8a]	8a/]	.	.
8C/ 8E 8A	(8c/ 8e	8e/	Przez	.
8C/ 8E 8A	8e/ 8a	8a/	ca-	.
8EE/J 8E	8a/J) 8cc	8cc\	-łą	.
!!LO:LB:g=original	!	!	!	!
=27	=27	=27	=27	=27
8GG#X/L	[2g#X/ [2b	[2b\	noc	.
8E/ 8G#X 8d	.	.	.	.
8E/ 8G# 8d	.	.	.	.
8BBB/J 8BB	.	.	.	.
=28	=28	=28	=28	=28
8EE/L 8E	8g#\L] 8b]	8b\]	.	.
8E/ 8G#X 8d	(8e\	8e/	Swe	.
8E/ 8G# 8d	8b\ 8dd	8dd\	ser-	.
8BBB/J 8BB	8g#X\J) 8b	8b\	-ce	.
=29	=29	=29	=29	=29
8EE/L 8E	[2e/ [2g#X	[2g#X/	daj	.
8E/ 8G#X 8d	.	.	.	.
8E/ 8G# 8d	.	.	.	.
8BBB/J 8BB	.	.	.	.
=30	=30	=30	=30	=30
8EE/L 8E	8e/L] 8g#]	8g#/]	.	.
8E/ 8G#X 8d	(8e/	8e/	I	.
8E/ 8G# 8d	8g#X/	8g#X/	wra-	.
8EE/J 8E	8b/J)	8b\	-żeń	.
=31	=31	=31	=31	=31
16AA/KL 16A	[2c/ [>2e [2a	[2a/	moc	.
8F/	.	.	.	.
16E/Jk	.	.	.	.
16D/KL	.	.	.	.
8C/	.	.	.	.
16BB/Jk	.	.	.	.
=32	=32	=32	=32	=32
8AA/	8c/L] 8e] 8a]	8a/]	.	.
8AAA/L 8AA	8c/ 8e 8a	8a/	Niech	.
8BBB/ 8BB	8d/ 8f 8a	8a/	skrzyp-	.
8CC#X/J 8C#X	8e/J 8g 8a	8a/	-ki	.
!!LO:LB:g=original	!	!	!	!
=33	=33	=33	=33	=33
8DD/L 8D	4f/ 4a	4a/	łka-	.
8D/ 8F 8A	.	.	.	.
8D/ 8F 8A	[4d/ [4f	[4f/	-ją	.
8AAA/J 8AA	.	.	.	.
=34	=34	=34	=34	=34
8DD/L 8D	16d/LL] 16f]	16f/]	.	.
.	16d/	16d/	Cz-	.
8D/ 8F 8A	16e/	16e/	-ro-	.
.	16f/JJ	16f/	-wne	.
8D/ 8F 8A	8.cc\L	8.cc\	tan-	.
8DD/J 8D	.	.	.	.
.	16b\Jk	16b\	-go	.
=35	=35	=35	=35	=35
*	*^	*	*	*
8AAA/L 8AA	4a/	2c\	4a/	gra-	.
8C/ 8E 8A	.	.	.	.	.
8C/ 8E 8A	[<4e/	.	[4e/	-ją	.
8EE/J 8E	.	.	.	.	.
=36	=36	=36	=36	=36	=36
8AA/L	8e/L]	8e\L	8e/]	.	.
8C/ 8E 8A	(8e/	(8e\	8e/	Za	.
8DD/ 8D	8dd/	8f\ 8a	8dd\	ta-	.
8DD#X/J 8D#X	8cc/J)	8f#X\J) 8a	8cc\	-ką	.
=37	=37	=37	=37	=37	=37
8EE/L 8E	[2b/	[2d\ [<2g#X	[2b\	grę	.
8E/ 8G#X 8B	.	.	.	.	.
8E/ 8G# 8B	.	.	.	.	.
8BBB/J 8BB	.	.	.	.	.
=38	=38	=38	=38	=38	=38
8EE/L 8E	8b/L]	8d\L] 8g#]	8b\]	.	.
8FF/ 8F	8dd/	8f\ 8g#X	8dd\	Dam	.
8FF#X/ 8F#X	8cc/	8e\ 8a	8cc\	ży-	.
8GG#X/J 8G#X	8b/J	8d\J 8g#	8b\	-cie	.
*	*v	*v	*	*	*
!!LO:LB:g=original	!	!	!	!
=39	=39	=39	=39	=39
*>A1	*>A1	*>A1	*>A1	*>A1
16AA/KL 16A	[2c/ [>2e [2a	[2a/	swe...	.
8FF/ 8F	.	.	.	.
16EE/Jk 16E	.	.	.	.
16DD/KL 16D	.	.	.	.
8CC/ 8C	.	.	.	.
16BBB/Jk 16BB	.	.	.	.
=40	=40	=40	=40	=40
8AAA/ 8AA	8c\L] 8e] 8a]	8a/]	.	.
8r	(8e\	8e/	Graj	.
4r	8cc\ 8ee	8ee\	skrzy-	.
.	8a\J) 8cc	8cc\	-pku	.
=41:|!	=41:|!	=41:|!	=41:|!	=41:|!
*>A2	*>A2	*>A2	*>A2	*>A2
16AA/KL 16A	[2c/ [>2e [2a	[2a/	swe	.
8FF/ 8F	.	.	.	.
16EE/Jk 16E	.	.	.	.
16DD/KL 16D	.	.	.	.
8CC/ 8C	.	.	.	.
16BBB/Jk 16BB	.	.	.	.
=42	=42	=42	=42	=42
8AAA/L 8AA	8c/L] 8e] 8a]	4a/]	.	.
8EE/	8G#X/J 8B 8e	.	.	.
8AAA/J 8AA	16c/LL 16e 16a	16r	.	.
.	16e/ 16cc	16cc\	U-	.
8r	16e/ 16cc	16cc\	-cie-	.
.	16d/JJ 16b	16b\	-kły	.
!LO:TX:b:rj:t=[segno]	!	!LO:TX:a:rj:t=[segno]	!	!
=43||	=43||	=43||	=43||	=43||
16AA/KL 16A	[2c/ [>2e [2a	[2a/	swe	.
8FF/ 8F	.	.	.	.
16EE/Jk 16E	.	.	.	.
16DD/KL 16D	.	.	.	.
8CC/ 8C	.	.	.	.
16BBB/Jk 16BB	.	.	.	.
=44	=44	=44	=44	=44
8AAA/ 8AA	8c/] 8e] 8a]	8a/]	.	.
8D;\ 8F 8A	8d;/ 8f 8a 8b	8r	.	.
4AA;\ 4C#X 4E 4A	4e;/ 4a 4cc#X	4r	.	.
==	==	==	==	==
*-	*-	*-	*-	*-
!!!system-decoration: s1{(s2,s3)}
!!!RDF**kern: > = above
!!!RDF**kern: < = below
!!!ENC: Anastazja Marusiak
!!!END: 2023-08-23
!!!ENC: Jan Barakat
!!!END: 2023-09-17
